svg/color/cmgon.svg

<svg width="40" height="40" viewBox="0 0 40 40" fill="none" xmlns="http://www.w3.org/2000/svg">
<g clip-path="url(#clip0_819_3679)">
<path d="M20 0C31.0457 0 40 8.9543 40 20C40 31.0457 31.0457 40 20 40C8.95431 40 7.90517e-06 31.0457 0 20C6.58765e-07 8.95431 8.95431 1.97595e-06 20 0Z" fill="#DAD0CC"/>
<path d="M26 6C30.4183 6 34 9.58172 34 14V26C34 30.4183 30.4183 34 26 34H14C9.58172 34 6 30.4183 6 26V14C6 9.58172 9.58172 6 14 6H26Z" fill="#451500"/>
<path d="M25.065 10C25.2369 10.0344 25.9932 10.275 25.9932 10.275C25.9932 10.275 26.7151 11.3407 26.9213 11.5813C27.0932 11.822 27.0245 11.9595 27.0245 11.9595L26.6807 13.2658C26.5432 13.1627 25.5806 13.2314 25.34 13.2658C25.0994 13.3002 25.5463 12.9908 25.6494 12.8877C25.7525 12.7845 26.165 12.4751 26.1307 12.3376C26.0963 12.1657 25.4431 10.9626 25.4431 10.9626C25.4431 10.9626 24.3431 10.9625 23.8274 11.0313C23.3118 11.1001 22.2117 12.2001 22.2117 12.2001L21.7992 13.7814C21.7992 13.7814 21.9711 14.0565 22.1773 14.2627C22.418 14.4346 23.0711 14.4002 23.3118 14.3659C23.5524 14.3315 23.4493 14.6409 23.243 14.8128C23.0368 14.9846 22.2805 14.9846 22.2805 14.9846L22.5899 15.0878C22.9336 15.3972 23.5524 17.0129 23.9306 17.391C24.3087 17.7692 23.9306 19.6255 23.3805 20.1755C22.8305 20.7256 22.5899 21.86 22.2805 22.1694C21.9711 22.4788 21.6273 22.3756 21.9711 22.7194C22.3148 23.0632 22.143 23.4757 22.2117 23.7507C22.2461 23.957 22.3148 24.3007 22.4524 24.4383C22.6242 24.6101 25.0994 26.329 26.0619 26.3977C26.2338 26.3977 26.2338 27.2915 25.2369 28.3572C25.2369 28.3572 25.065 28.976 23.3461 29.0447C21.4898 29.1135 19.6678 28.8041 19.2553 28.8041C18.8428 28.8041 17.6052 28.1166 17.6052 28.1166C17.3646 28.1166 13.755 22.7538 13.755 22.3756C13.755 21.9975 13.48 21.0006 13.48 20.6224C13.48 20.2443 13.9269 16.841 13.8582 16.4285C13.7894 16.1191 13.9613 16.0159 14.3394 15.6722C14.7176 15.294 15.3707 14.6752 15.6457 14.4002C15.7489 14.2971 16.6427 14.2971 17.7427 14.0908L17.9146 14.0221L17.7084 13.919C17.7084 13.919 17.3646 13.4721 16.8146 13.5064C16.2645 13.5408 16.0583 13.5752 16.3677 13.4377C16.6427 13.3002 17.1927 12.922 17.1927 12.922L18.4303 13.4721H19.0834L20.2522 12.5095L22.8993 10.3781L25.065 10ZM16.8833 16.7722C16.5739 16.841 16.0583 16.7379 15.8176 17.1848L15.4051 19.1442C15.4051 19.1442 15.4395 21.1037 15.5082 21.4818C15.5426 21.86 16.0583 23.1319 16.3333 23.4069C16.5739 23.6476 16.8146 24.4726 17.2615 24.9195C17.3646 25.0227 17.6396 25.0914 17.7084 25.2289C17.8802 25.4696 18.0521 25.2977 17.7084 24.8164C16.5052 23.0288 16.2302 21.4818 16.1958 21.2412C16.0583 20.6568 16.1614 19.3161 16.1958 18.7661C16.2302 18.4911 16.402 17.8379 16.6083 17.7004C16.7114 17.6316 17.5365 17.5285 17.674 17.4941C17.949 17.4254 18.2928 17.4254 18.5334 17.391C19.2897 17.2191 20.4241 17.6316 20.5273 17.666C21.6617 18.1817 21.2148 18.3879 21.2492 18.4223C21.2835 18.4911 19.6678 21.6881 19.6678 21.86C19.6678 22.0319 19.7366 23.6132 19.8741 24.0601C19.9085 24.1976 20.4241 25.4008 20.5273 25.6414C20.9398 26.604 19.6678 25.4696 19.5991 25.4352C19.5303 25.4008 18.1209 22.5475 17.8802 21.9287C17.7084 21.5162 17.7771 20.8974 17.8115 20.7943C17.8459 20.6224 17.7427 19.2474 17.9834 19.0411C18.1553 18.9036 18.6709 18.8348 19.0491 19.0067C19.3928 19.1442 19.5647 19.5224 19.5303 19.6255C19.4959 19.6943 18.9803 21.4475 18.8772 21.31C18.8428 21.2756 18.8428 20.7256 18.774 20.6568C18.6709 20.5537 18.5334 20.4849 18.499 20.5537C18.4646 20.6224 18.3615 21.2068 18.3959 21.4131C18.6365 22.3756 18.9459 22.0663 19.0491 21.8944C19.2209 21.6194 19.9772 19.488 19.9428 19.3505C19.9085 19.0411 19.6678 18.4911 19.1866 18.3192C18.8772 18.2161 17.8802 18.2848 17.5021 18.4567C16.9521 18.7317 16.9864 21.2068 17.0896 21.5506C17.1927 21.8944 18.6365 24.782 18.7053 24.9883C18.8772 25.4352 19.9085 26.4321 20.046 26.5352C20.1147 26.5696 21.5242 27.1196 21.6961 26.8446C21.7648 26.7071 21.7304 26.3977 21.3867 26.1571C21.0429 25.9508 20.2522 23.5788 20.2522 23.4069C20.2522 23.2351 20.046 21.9287 20.1835 21.6537C20.4585 21.1381 22.3836 18.2504 22.1773 18.0098C21.9023 17.7004 21.0429 16.2566 20.6304 16.8066C20.2522 17.2879 18.8084 16.8066 18.3615 16.4628C18.3615 16.4972 17.3646 16.7035 16.8833 16.7722ZM22.4524 27.8759C23.0024 27.8759 24.5493 27.0509 23.9993 26.6727C23.6212 26.4321 23.2086 26.1227 22.418 25.5039C22.0742 25.2289 21.9023 25.2977 21.7992 25.2977C21.4898 25.2977 22.0055 24.782 21.8336 24.3351C21.6273 23.8882 21.5242 23.1663 21.3867 22.9944C21.2148 22.8225 21.2835 21.9631 21.6273 21.6194C22.0055 21.2412 22.5211 20.1755 22.8305 19.763C23.1743 19.2817 23.4149 18.1817 23.2774 18.0442C23.1399 17.9067 22.4867 16.566 22.2117 16.291C22.0398 16.1191 21.7304 15.6722 21.4554 15.294L21.3867 15.1909L21.0773 15.3628C20.7679 15.5347 20.3897 15.8784 20.3897 15.8784C20.3897 15.8784 20.1147 15.9472 19.5303 15.8441C19.2209 15.7753 19.0834 15.569 19.0834 15.294C19.0834 15.019 18.9115 15.0878 18.9115 15.0878C18.9115 15.0878 16.1614 15.2253 15.9208 15.3628C15.7145 15.5003 14.752 16.8066 14.752 16.8066C14.752 16.8066 14.2363 21.8256 14.6488 22.2381C15.1301 22.7194 17.3302 26.604 17.7771 27.0509C18.2584 27.7384 21.9023 27.8759 22.4524 27.8759Z" fill="white"/>
</g>
<defs>
<clipPath id="clip0_819_3679">
<rect width="40" height="40" fill="white"/>
</clipPath>
</defs>
</svg>

<svg xmlns="http://www.w3.org/2000/svg" width="40" height="40" fill="none" viewBox="0 0 40 40"><g clip-path="url(#cmgon_svg-a)"><path fill="#DAD0CC" d="M20 0c11.046 0 20 8.954 20 20s-8.954 20-20 20S0 31.046 0 20 8.954 0 20 0"/><path fill="#451500" d="M26 6a8 8 0 0 1 8 8v12a8 8 0 0 1-8 8H14a8 8 0 0 1-8-8V14a8 8 0 0 1 8-8z"/><path fill="#fff" d="M25.065 10c.172.034.928.275.928.275s.722 1.066.928 1.306c.172.241.104.379.104.379l-.344 1.306c-.138-.103-1.1-.035-1.341 0-.24.034.206-.275.31-.378.103-.104.515-.413.48-.55-.034-.172-.687-1.375-.687-1.375s-1.1 0-1.616.068c-.515.07-1.615 1.17-1.615 1.17l-.413 1.58s.172.275.378.482c.241.172.894.137 1.135.103.24-.034.137.275-.069.447s-.962.172-.962.172l.309.103c.344.31.962 1.925 1.34 2.303s0 2.235-.55 2.785-.79 1.684-1.1 1.993c-.309.31-.653.207-.309.55s.172.757.24 1.032c.035.206.104.55.241.687.172.172 2.647 1.891 3.61 1.96.172 0 .172.893-.825 1.96 0 0-.172.618-1.89.687-1.857.068-3.68-.24-4.092-.24s-1.65-.688-1.65-.688c-.24 0-3.85-5.363-3.85-5.741 0-.379-.275-1.375-.275-1.754 0-.378.447-3.781.378-4.193-.069-.31.103-.413.481-.757.379-.378 1.032-.997 1.307-1.272.103-.103.997-.103 2.097-.31l.172-.068-.207-.103s-.343-.447-.893-.413-.757.07-.447-.068c.275-.138.825-.516.825-.516l1.237.55h.653l1.17-.963 2.646-2.13zm-8.182 6.772c-.31.069-.825-.034-1.065.413l-.413 1.96s.035 1.959.103 2.337c.035.378.55 1.65.825 1.925.24.24.482 1.066.929 1.512.103.104.378.172.446.31.172.24.344.069 0-.413-1.203-1.787-1.478-3.334-1.512-3.575-.138-.584-.035-1.925 0-2.475.034-.275.206-.928.412-1.066.103-.068.928-.171 1.066-.206.275-.069.619-.069.86-.103.756-.172 1.89.24 1.993.275 1.135.516.688.722.722.756.035.07-1.581 3.266-1.581 3.438s.069 1.753.206 2.2c.035.138.55 1.34.653 1.581.413.963-.86-.171-.928-.206s-1.478-2.887-1.719-3.506c-.172-.413-.103-1.032-.069-1.135.035-.172-.068-1.547.172-1.753.172-.137.688-.206 1.066-.034.344.137.516.515.481.618-.034.07-.55 1.823-.653 1.685-.034-.034-.034-.584-.103-.653-.103-.103-.24-.172-.275-.103-.034.068-.137.653-.103.86.24.962.55.652.653.48.172-.275.928-2.406.894-2.543-.035-.31-.275-.86-.756-1.032-.31-.103-1.307-.034-1.685.138-.55.275-.516 2.75-.412 3.094.103.343 1.547 3.231 1.615 3.437.172.447 1.204 1.444 1.341 1.547.069.035 1.478.585 1.65.31.069-.138.034-.447-.31-.688-.343-.206-1.134-2.578-1.134-2.75s-.206-1.478-.069-1.753c.276-.516 2.2-3.404 1.994-3.644-.275-.31-1.134-1.753-1.547-1.203-.378.48-1.822 0-2.268-.344 0 .034-.997.24-1.479.31m5.57 11.104c.55 0 2.096-.825 1.546-1.203-.378-.24-.79-.55-1.581-1.17-.344-.274-.516-.205-.619-.205-.31 0 .207-.516.035-.963-.207-.447-.31-1.169-.447-1.34-.172-.172-.104-1.032.24-1.376.379-.378.894-1.444 1.204-1.856.343-.481.584-1.581.446-1.719-.137-.137-.79-1.478-1.065-1.753-.172-.172-.482-.619-.757-.997l-.068-.103-.31.172c-.31.172-.687.515-.687.515s-.275.07-.86-.034c-.31-.069-.447-.275-.447-.55s-.171-.206-.171-.206-2.75.137-2.991.275c-.207.137-1.169 1.444-1.169 1.444s-.516 5.019-.103 5.431c.481.481 2.681 4.366 3.128 4.813.481.687 4.125.825 4.675.825"/></g><defs><clipPath id="cmgon_svg-a"><path fill="#fff" d="M0 0h40v40H0z"/></clipPath></defs></svg>
